X: 206
T: "Haugalyykkjin" en Bryllupsringlender
C: av Gunn Br\ondbo
S: Maggie McRae via google drive
O: Norway
R: shottish
M: 2/4
L: 1/16
K: D
% - - - - - - - - - - - - - - - - - - - - - - - - -
V: 1
(uAB) |\
"D"vAFDE F2A2 | "G"vGABd "D"A4 | uF2AG "A7"E2(GF) | vEDCE "D"D2(AB) |\
"D"vAFDE F2A2 | "G"vGABd "D"A4 | uF2AG "A7"EDCE | "D"vD2D2D2 :|
|: zA |\
"D"vd2(fe) d3A | d2(fe) d2F2 | "G"vG2(BA) "Em"G2F2 | "A7"EDCE A3A |\
"D"vd2fe d2cd | "Em"e2gf ue4 | B2(GB) "A7"AAce | "D"d2d2d2 :|
% - - - - - - - - - - - - - - - - - - - - - - - - -
V: 2
(uFG |\
F)(DA,)D D2F2 | B,DDG F4 | D2FE G2G2 | GFEG F2(vFG |\
F)(DA,)D D2F2 | B,DDG F4 | A2dB GFEG | F2F2F2 :|
|: zF |\
F2(AG) F3F | F2(AG) F2A2 | B2(dc) B2A2 | GFEA c3c |\
F2(AG) F2(EF) |
G2BA G4 | G2E2 A2(AG) | F2F2F2 :|
% - - - - - - - - - - - - - - - - - - - - - - - - -
